humanity-icon-theme/Humanity/actions/24/document-open.svg

<?xml version="1.0" encoding="UTF-8" standalone="no"?>
<!-- Created with Inkscape (http://www.inkscape.org/) -->
<svg
   xmlns:svg="http://www.w3.org/2000/svg"
   xmlns="http://www.w3.org/2000/svg"
   xmlns:xlink="http://www.w3.org/1999/xlink"
   version="1.0"
   width="24"
   height="24"
   id="svg3287">
  <defs
     id="defs3289">
    <linearGradient
       id="linearGradient8265-821-176-38-919-66-249-0-7">
      <stop
         id="stop2687-4-1"
         style="stop-color:#ffffff;stop-opacity:0.27450982"
         offset="0" />
      <stop
         id="stop2689-2-2"
         style="stop-color:#ffffff;stop-opacity:0.07843138"
         offset="1" />
    </linearGradient>
    <linearGradient
       x1="18.03083"
       y1="16.407909"
       x2="20.054544"
       y2="24.627615"
       id="linearGradient3001-8-3"
       xlink:href="#linearGradient8265-821-176-38-919-66-249-0-7"
       gradientUnits="userSpaceOnUse"
       gradientTransform="matrix(0.4450331,0,0,0.3010162,2.855509,8.563845)" />
    <linearGradient
       id="linearGradient3752-8-1">
      <stop
         id="stop3754-7-5"
         style="stop-color:#ffffff;stop-opacity:1"
         offset="0" />
      <stop
         id="stop3760-0-0"
         style="stop-color:#ffffff;stop-opacity:1"
         offset="0.84754151" />
      <stop
         id="stop3756-4-9"
         style="stop-color:#ffffff;stop-opacity:0"
         offset="1" />
    </linearGradient>
    <radialGradient
       cx="4.02005"
       cy="5.5926585"
       r="10.273108"
       fx="4.02005"
       fy="5.5926585"
       id="radialGradient3004-5-2"
       xlink:href="#linearGradient3752-8-1"
       gradientUnits="userSpaceOnUse"
       gradientTransform="matrix(-1.680222e-2,1.0430854,-1.79662,-1.619728e-2,14.188571,7.297105)" />
    <linearGradient
       id="linearGradient3390-178-986-453">
      <stop
         id="stop3624"
         style="stop-color:#bb2b12;stop-opacity:1"
         offset="0" />
      <stop
         id="stop3626"
         style="stop-color:#cd7233;stop-opacity:1"
         offset="1" />
    </linearGradient>
    <linearGradient
       x1="9.7045717"
       y1="20.882006"
       x2="9.7045717"
       y2="4.3030405"
       id="linearGradient3295"
       xlink:href="#linearGradient3390-178-986-453"
       gradientUnits="userSpaceOnUse"
       gradientTransform="matrix(0.9945751,0,0,0.7440584,-0.302963,6.9687932)" />
    <linearGradient
       id="linearGradient7012-661-145-733-759-865-745-661-970-94">
      <stop
         id="stop3618"
         style="stop-color:#f0c178;stop-opacity:1"
         offset="0" />
      <stop
         id="stop3270"
         style="stop-color:#e18941;stop-opacity:1"
         offset="0.5" />
      <stop
         id="stop3620"
         style="stop-color:#ec4f18;stop-opacity:1"
         offset="1" />
    </linearGradient>
    <radialGradient
       cx="7.8185525"
       cy="8.5608768"
       r="11.268134"
       fx="7.8185525"
       fy="8.5608768"
       id="radialGradient3293"
       xlink:href="#linearGradient7012-661-145-733-759-865-745-661-970-94"
       gradientUnits="userSpaceOnUse"
       gradientTransform="matrix(1.6899516,0,0,0.7807412,-5.412667,6.403202)" />
    <linearGradient
       id="linearGradient4559">
      <stop
         id="stop4561"
         style="stop-color:#c0c0c0;stop-opacity:1"
         offset="0" />
      <stop
         id="stop4563"
         style="stop-color:#949492;stop-opacity:1"
         offset="1" />
    </linearGradient>
    <linearGradient
       x1="17.288921"
       y1="2.184907"
       x2="15.179585"
       y2="5.8214641"
       id="linearGradient3259"
       xlink:href="#linearGradient4559"
       gradientUnits="userSpaceOnUse"
       gradientTransform="matrix(0.6844293,0,0,0.6820072,-0.2131519,0.1569169)" />
    <linearGradient
       id="linearGradient8589">
      <stop
         id="stop8591"
         style="stop-color:#fefefe;stop-opacity:1"
         offset="0" />
      <stop
         id="stop8593"
         style="stop-color:#cbcbcb;stop-opacity:1"
         offset="1" />
    </linearGradient>
    <linearGradient
       x1="32.892288"
       y1="8.0590115"
       x2="36.358372"
       y2="5.4565363"
       id="linearGradient3257"
       xlink:href="#linearGradient8589"
       gradientUnits="userSpaceOnUse"
       gradientTransform="matrix(0.3707081,0,0,0.3548465,-0.8566575,-4.895116e-2)" />
    <linearGradient
       id="linearGradient3931">
      <stop
         id="stop3933"
         style="stop-color:#8d8f8a;stop-opacity:1"
         offset="0" />
      <stop
         id="stop3935"
         style="stop-color:#c1c1c1;stop-opacity:1"
         offset="1" />
    </linearGradient>
    <linearGradient
       x1="-51.786404"
       y1="50.786446"
       x2="-51.786404"
       y2="2.9062471"
       id="linearGradient3255"
       xlink:href="#linearGradient3931"
       gradientUnits="userSpaceOnUse"
       gradientTransform="matrix(0.3000362,0,0,0.3120485,21.157141,-0.3741276)" />
    <linearGradient
       id="linearGradient3600">
      <stop
         id="stop3602"
         style="stop-color:#f4f4f4;stop-opacity:1"
         offset="0" />
      <stop
         id="stop3604"
         style="stop-color:#dbdbdb;stop-opacity:1"
         offset="1" />
    </linearGradient>
    <linearGradient
       x1="25.132275"
       y1="6.7287393"
       x2="25.132275"
       y2="47.013336"
       id="linearGradient3253"
       xlink:href="#linearGradient3600"
       gradientUnits="userSpaceOnUse"
       gradientTransform="matrix(0.3715633,0,0,0.3334383,-0.9175205,-2.5171e-3)" />
    <linearGradient
       id="linearGradient5157">
      <stop
         id="stop5159"
         style="stop-color:#c1c1c1;stop-opacity:1"
         offset="0" />
      <stop
         id="stop5161"
         style="stop-color:#909090;stop-opacity:1"
         offset="1" />
    </linearGradient>
    <linearGradient
       x1="9.8763561"
       y1="2.6014566"
       x2="9.8763561"
       y2="23.061668"
       id="linearGradient3021"
       xlink:href="#linearGradient5157"
       gradientUnits="userSpaceOnUse"
       gradientTransform="translate(3.6304e-2,2.8999999e-7)" />
    <linearGradient
       id="linearGradient11111">
      <stop
         id="stop11113"
         style="stop-color:#ffffff;stop-opacity:1"
         offset="0" />
      <stop
         id="stop11115"
         style="stop-color:#cdcdcd;stop-opacity:1"
         offset="0.91013825" />
      <stop
         id="stop11117"
         style="stop-color:#a1a1a1;stop-opacity:1"
         offset="1" />
    </linearGradient>
    <linearGradient
       x1="-28.531403"
       y1="17.955765"
       x2="-28.531403"
       y2="37.502914"
       id="linearGradient3019"
       xlink:href="#linearGradient11111"
       gradientUnits="userSpaceOnUse"
       gradientTransform="translate(34.414308,-14.501322)" />
    <radialGradient
       cx="605.71429"
       cy="486.64789"
       r="117.14286"
       fx="605.71429"
       fy="486.64789"
       id="radialGradient2621"
       xlink:href="#linearGradient5060"
       gradientUnits="userSpaceOnUse"
       gradientTransform="matrix(-2.774389,0,0,1.969706,112.7623,-872.8854)" />
    <linearGradient
       id="linearGradient5060">
      <stop
         id="stop5062"
         style="stop-color:#000000;stop-opacity:1"
         offset="0" />
      <stop
         id="stop5064"
         style="stop-color:#000000;stop-opacity:0"
         offset="1" />
    </linearGradient>
    <radialGradient
       cx="605.71429"
       cy="486.64789"
       r="117.14286"
       fx="605.71429"
       fy="486.64789"
       id="radialGradient2619"
       xlink:href="#linearGradient5060"
       gradientUnits="userSpaceOnUse"
       gradientTransform="matrix(2.774389,0,0,1.969706,-1891.633,-872.8854)" />
    <linearGradient
       id="linearGradient5048">
      <stop
         id="stop5050"
         style="stop-color:#000000;stop-opacity:0"
         offset="0" />
      <stop
         id="stop5056"
         style="stop-color:#000000;stop-opacity:1"
         offset="0.5" />
      <stop
         id="stop5052"
         style="stop-color:#000000;stop-opacity:0"
         offset="1" />
    </linearGradient>
    <linearGradient
       x1="302.85715"
       y1="366.64789"
       x2="302.85715"
       y2="609.50507"
       id="linearGradient2617"
       xlink:href="#linearGradient5048"
       gradientUnits="userSpaceOnUse"
       gradientTransform="matrix(2.774389,0,0,1.969706,-1892.179,-872.8854)" />
  </defs>
  <g
     id="layer1">
    <g
       id="g3350">
      <g
         transform="matrix(0.5459263,0,0,0.5168524,-0.965732,-0.5781817)"
         id="g3490"
         style="stroke-width:1.88256383;stroke-miterlimit:4;stroke-dasharray:none">
        <g
           transform="matrix(2.165152e-2,0,0,1.485743e-2,43.0076,42.68539)"
           id="g5022"
           style="stroke-width:104.96237946;stroke-miterlimit:4;stroke-dasharray:none;display:inline">
          <rect
             width="1339.6335"
             height="478.35718"
             x="-1559.2523"
             y="-150.69685"
             id="rect2527"
             style="opacity:0.40206185;fill:url(#linearGradient2617);fill-opacity:1;fill-rule:nonzero;stroke:none;stroke-width:104.96237946;marker:none;visibility:visible;display:inline;overflow:visible" />
          <path
             d="M -219.61876,-150.68038 C -219.61876,-150.68038 -219.61876,327.65041 -219.61876,327.65041 C -76.744594,328.55086 125.78146,220.48075 125.78138,88.454235 C 125.78138,-43.572302 -33.655436,-150.68036 -219.61876,-150.68038 L -219.61876,-150.68038 z"
             id="path2529"
             style="opacity:0.40206185;fill:url(#radialGradient2619);fill-opacity:1;fill-rule:nonzero;stroke:none;stroke-width:104.96237946;marker:none;visibility:visible;display:inline;overflow:visible" />
          <path
             d="M -1559.2523,-150.68038 C -1559.2523,-150.68038 -1559.2523,327.65041 -1559.2523,327.65041 C -1702.1265,328.55086 -1904.6525,220.48075 -1904.6525,88.454235 C -1904.6525,-43.572302 -1745.2157,-150.68036 -1559.2523,-150.68038 L -1559.2523,-150.68038 z"
             id="path2531"
             style="opacity:0.40206185;fill:url(#radialGradient2621);fill-opacity:1;fill-rule:nonzero;stroke:none;stroke-width:104.96237946;marker:none;visibility:visible;display:inline;overflow:visible" />
        </g>
      </g>
      <path
         d="M 0.713585,2.5694953 C 0.628046,2.5694953 0.554716,2.6622423 0.554716,2.7580383 C 0.554716,8.6271983 0.51164,15.002127 0.505573,20.98276 C 0.534657,21.877795 1.042814,22.487902 1.395238,22.491102 C 2.407974,22.500302 1.93451,22.487102 2.443773,22.491102 C 8.914106,22.475002 16.02269,22.412932 22.493021,22.396832 C 22.547231,22.403732 21.016306,22.289107 21.031427,20.951337 C 21.031428,16.27839 20.52938,9.7643453 20.52938,5.0913963 C 20.52938,4.9045183 20.51394,4.8005103 20.49761,4.7143113 C 20.485,4.6477483 20.46891,4.6154413 20.43406,4.5886163 C 20.4062,4.5641653 20.37951,4.5315733 20.33874,4.5257683 L 11.518601,4.5257683 C 10.703285,4.5257683 10.516545,2.5338053 9.304911,2.5338053 L 0.713585,2.5694953 L 0.713585,2.5694953 z"
         id="path3496"
         style="fill:url(#linearGradient3019);fill-opacity:1;stroke:url(#linearGradient3021);stroke-width:1.01114547;stroke-linecap:round;stroke-linejoin:round;stroke-miterlimit:4;stroke-dasharray:none;stroke-opacity:1;display:inline" />
      <rect
         width="7"
         height="1"
         rx="0.53846157"
         ry="0.5"
         x="2"
         y="4"
         id="rect2545"
         style="fill:#edbd74;fill-opacity:1;fill-rule:nonzero;stroke:none;stroke-width:1;marker:none;visibility:visible;display:block;overflow:visible;enable-background:accumulate" />
      <g
         transform="translate(3.9999996,0.9999995)"
         id="layer1-9">
        <path
           d="M 1.4976268,0.49762721 C 4.4776718,0.49762721 6.4352686,0.49762721 9.4153155,0.49762721 C 9.9380815,0.65947117 13.769004,3.1112494 14.502374,4.3879238 C 14.502374,8.2953868 14.502374,11.594908 14.502374,15.502374 C 10.16746,15.502374 5.8325402,15.502374 1.4976268,15.502374 C 1.4976268,10.50079 1.4976268,5.4992102 1.4976268,0.49762721 L 1.4976268,0.49762721 z"
           id="rect2594"
           style="fill:url(#linearGradient3253);fill-opacity:1;stroke:url(#linearGradient3255);stroke-width:0.9952535;stroke-linecap:butt;stroke-linejoin:round;stroke-miterlimit:4;stroke-dasharray:none;stroke-dashoffset:0;stroke-opacity:1;display:inline" />
        <path
           d="M 9.5,0.4979205 C 9.5,2.041279 9.5,4.5 9.5,4.5 C 9.5,4.5 13.580603,4.5 14.50208,4.5 C 14.50208,2.5981844 11.49634,0.4979205 9.5,0.4979205 L 9.5,0.4979205 z"
           id="path12038"
           style="fill:url(#linearGradient3257);fill-opacity:1;fill-rule:evenodd;stroke:url(#linearGradient3259);stroke-width:0.9952535;stroke-linecap:butt;stroke-linejoin:round;stroke-miterlimit:4;stroke-dasharray:none;stroke-opacity:1;display:inline" />
      </g>
      <path
         d="M 3.535658,10.581714 C 14.10556,10.581714 16.566102,10.582058 23.529163,10.561114 C 23.529163,11.735989 23.787319,22.561114 23.045051,22.561114 C 22.331003,22.561114 8.9994,22.490524 2.036341,22.511474 C 3.508025,22.511474 3.535658,22.045586 3.535658,10.581716 L 3.535658,10.581714 z"
         id="path3498"
         style="fill:url(#radialGradient3293);fill-opacity:1;stroke:url(#linearGradient3295);stroke-width:0.99999988;stroke-linecap:round;stroke-linejoin:round;stroke-miterlimit:4;stroke-dasharray:none;stroke-opacity:1;display:inline" />
      <path
         d="M 22.975103,11.376001 C 22.975103,11.376001 6.143302,11.446031 4.578307,11.306901 C 4.495368,21.652933 4.077359,22.108991 4.077359,22.108991"
         id="path3211"
         style="opacity:0.4;fill:none;stroke:url(#radialGradient3004-5-2);stroke-width:0.98119497;stroke-linecap:butt;stroke-linejoin:miter;stroke-miterlimit:4;stroke-dasharray:none;stroke-opacity:1;display:inline" />
      <path
         d="M 4.2879593,10.172401 C 3.6030764,10.172401 3.0363037,10.55576 3.0363037,11.019008 L 3.0363037,15.835268 C 3.0389237,15.921428 3.1023557,16.019664 3.2031911,16.079844 C 3.3040256,16.140024 3.4329148,16.165414 3.5786878,16.155094 C 3.5833178,16.155174 3.5879578,16.155174 3.5925948,16.155094 L 23.619085,14.010357 C 23.851291,13.985587 24.033057,13.849515 24.036303,13.690528 L 24.036303,11.019008 C 24.036303,10.55576 23.46953,10.172401 22.784648,10.172401 L 4.2879593,10.172401 L 4.2879593,10.172401 z"
         id="path2608"
         style="fill:url(#linearGradient3001-8-3);fill-opacity:1;fill-rule:evenodd;stroke:none" />
    </g>
  </g>
</svg>

<?xml version="1.0" encoding="UTF-8" standalone="no"?>
<!-- Created with Inkscape (http://www.inkscape.org/) -->
<svg id="svg3287" xmlns="http://www.w3.org/2000/svg" height="24" width="24" version="1.0" xmlns:xlink="http://www.w3.org/1999/xlink">
 <defs id="defs3289">
  <linearGradient id="linearGradient3001-8-3" y2="24.628" gradientUnits="userSpaceOnUse" x2="20.055" gradientTransform="matrix(.44503 0 0 .30102 2.8555 8.5638)" y1="16.408" x1="18.031">
   <stop id="stop2687-4-1" style="stop-color:#fff;stop-opacity:.27451" offset="0"/>
   <stop id="stop2689-2-2" style="stop-color:#fff;stop-opacity:.078431" offset="1"/>
  </linearGradient>
  <radialGradient id="radialGradient3004-5-2" gradientUnits="userSpaceOnUse" cy="5.5927" cx="4.02" gradientTransform="matrix(-.016802 1.0431 -1.7966 -.016197 14.189 7.2971)" r="10.273">
   <stop id="stop3754-7-5" style="stop-color:#fff" offset="0"/>
   <stop id="stop3760-0-0" style="stop-color:#fff" offset=".84754"/>
   <stop id="stop3756-4-9" style="stop-color:#fff;stop-opacity:0" offset="1"/>
  </radialGradient>
  <linearGradient id="linearGradient3295" y2="4.303" gradientUnits="userSpaceOnUse" x2="9.7046" gradientTransform="matrix(.99458 0 0 .74406 -.30296 6.9688)" y1="20.882" x1="9.7046">
   <stop id="stop3624" style="stop-color:#bb2b12" offset="0"/>
   <stop id="stop3626" style="stop-color:#cd7233" offset="1"/>
  </linearGradient>
  <radialGradient id="radialGradient3293" gradientUnits="userSpaceOnUse" cy="8.5609" cx="7.8186" gradientTransform="matrix(1.69 0 0 .78074 -5.4127 6.4032)" r="11.268">
   <stop id="stop3618" style="stop-color:#f0c178" offset="0"/>
   <stop id="stop3270" style="stop-color:#e18941" offset=".5"/>
   <stop id="stop3620" style="stop-color:#ec4f18" offset="1"/>
  </radialGradient>
  <linearGradient id="linearGradient3259" y2="5.8215" gradientUnits="userSpaceOnUse" x2="15.18" gradientTransform="matrix(.68443 0 0 .68201 -.21315 .15692)" y1="2.1849" x1="17.289">
   <stop id="stop4561" style="stop-color:#c0c0c0" offset="0"/>
   <stop id="stop4563" style="stop-color:#949492" offset="1"/>
  </linearGradient>
  <linearGradient id="linearGradient3257" y2="5.4565" gradientUnits="userSpaceOnUse" x2="36.358" gradientTransform="matrix(.37071 0 0 .35485 -.85666 -.048951)" y1="8.059" x1="32.892">
   <stop id="stop8591" style="stop-color:#fefefe" offset="0"/>
   <stop id="stop8593" style="stop-color:#cbcbcb" offset="1"/>
  </linearGradient>
  <linearGradient id="linearGradient3255" y2="2.9062" gradientUnits="userSpaceOnUse" x2="-51.786" gradientTransform="matrix(.30004 0 0 .31205 21.157 -.37413)" y1="50.786" x1="-51.786">
   <stop id="stop3933" style="stop-color:#8d8f8a" offset="0"/>
   <stop id="stop3935" style="stop-color:#c1c1c1" offset="1"/>
  </linearGradient>
  <linearGradient id="linearGradient3253" y2="47.013" gradientUnits="userSpaceOnUse" x2="25.132" gradientTransform="matrix(.37156 0 0 .33344 -.91752 -.0025171)" y1="6.7287" x1="25.132">
   <stop id="stop3602" style="stop-color:#f4f4f4" offset="0"/>
   <stop id="stop3604" style="stop-color:#dbdbdb" offset="1"/>
  </linearGradient>
  <linearGradient id="linearGradient3021" y2="23.062" gradientUnits="userSpaceOnUse" x2="9.8764" gradientTransform="translate(.036304 2.9e-7)" y1="2.6015" x1="9.8764">
   <stop id="stop5159" style="stop-color:#c1c1c1" offset="0"/>
   <stop id="stop5161" style="stop-color:#909090" offset="1"/>
  </linearGradient>
  <linearGradient id="linearGradient3019" y2="37.503" gradientUnits="userSpaceOnUse" x2="-28.531" gradientTransform="translate(34.414 -14.501)" y1="17.956" x1="-28.531">
   <stop id="stop11113" style="stop-color:#fff" offset="0"/>
   <stop id="stop11115" style="stop-color:#cdcdcd" offset=".91014"/>
   <stop id="stop11117" style="stop-color:#a1a1a1" offset="1"/>
  </linearGradient>
  <radialGradient id="radialGradient2621" xlink:href="#linearGradient5060" gradientUnits="userSpaceOnUse" cy="486.65" cx="605.71" gradientTransform="matrix(-2.7744 0 0 1.9697 112.76 -872.89)" r="117.14"/>
  <linearGradient id="linearGradient5060">
   <stop id="stop5062" offset="0"/>
   <stop id="stop5064" style="stop-opacity:0" offset="1"/>
  </linearGradient>
  <radialGradient id="radialGradient2619" xlink:href="#linearGradient5060" gradientUnits="userSpaceOnUse" cy="486.65" cx="605.71" gradientTransform="matrix(2.7744 0 0 1.9697 -1891.6 -872.89)" r="117.14"/>
  <linearGradient id="linearGradient2617" y2="609.51" gradientUnits="userSpaceOnUse" x2="302.86" gradientTransform="matrix(2.7744 0 0 1.9697 -1892.2 -872.89)" y1="366.65" x1="302.86">
   <stop id="stop5050" style="stop-opacity:0" offset="0"/>
   <stop id="stop5056" offset=".5"/>
   <stop id="stop5052" style="stop-opacity:0" offset="1"/>
  </linearGradient>
 </defs>
 <g id="layer1">
  <g id="g3350">
   <g id="g3490" style="stroke-width:1.8826" transform="matrix(.54593 0 0 .51685 -.96573 -.57818)">
    <g id="g5022" style="stroke-width:104.96" transform="matrix(.021652 0 0 .014857 43.008 42.685)">
     <rect id="rect2527" style="opacity:.40206;fill:url(#linearGradient2617)" height="478.36" width="1339.6" y="-150.7" x="-1559.3"/>
     <path id="path2529" style="opacity:.40206;fill:url(#radialGradient2619)" d="m-219.62-150.68v478.33c142.88 0.9 345.4-107.17 345.4-239.2 0-132.02-159.44-239.13-345.4-239.13z"/>
     <path id="path2531" style="opacity:.40206;fill:url(#radialGradient2621)" d="m-1559.3-150.68v478.33c-142.8 0.9-345.4-107.17-345.4-239.2 0-132.02 159.5-239.13 345.4-239.13z"/>
    </g>
   </g>
   <path id="path3496" style="stroke-linejoin:round;stroke:url(#linearGradient3021);stroke-linecap:round;stroke-width:1.0111;fill:url(#linearGradient3019)" d="m0.71358 2.5695c-0.08553 0-0.15886 0.0927-0.15886 0.1885 0 5.8692-0.04308 12.244-0.04915 18.225 0.02909 0.895 0.53723 1.505 0.88963 1.508 1.0128 0.009 0.5393-0.004 1.0486 0 6.4703-0.016 13.579-0.078 20.049-0.094 0.054 0.007-1.477-0.108-1.462-1.446 0-4.673-0.502-11.187-0.502-15.86 0-0.1865-0.015-0.2905-0.031-0.3767-0.013-0.0666-0.029-0.0989-0.064-0.1257-0.028-0.0244-0.054-0.057-0.095-0.0628h-8.82c-0.816 0-1.002-1.992-2.2141-1.992l-8.5913 0.0357h-0.00002z"/>
   <rect id="rect2545" style="display:block;fill:#edbd74" rx=".53846" ry=".5" height="1" width="7" y="4" x="2"/>
   <g id="layer1-9" transform="translate(4 1)">
    <path id="rect2594" style="stroke-linejoin:round;stroke:url(#linearGradient3255);stroke-width:.99525;fill:url(#linearGradient3253)" d="m1.4976 0.49763h7.9177c0.5228 0.16184 4.3537 2.6136 5.0867 3.8903v11.114h-13.004c-0.0004-5.001-0.0004-10.003-0.0004-15.004v-0.00037z"/>
    <path id="path12038" style="stroke-linejoin:round;fill-rule:evenodd;stroke:url(#linearGradient3259);stroke-width:.99525;fill:url(#linearGradient3257)" d="m9.5 0.49792v4.0021h5.002c0-1.9018-3.006-4.0021-5.002-4.0021v0.00002z"/>
   </g>
   <path id="path3498" style="stroke-linejoin:round;stroke:url(#linearGradient3295);stroke-linecap:round;fill:url(#radialGradient3293)" d="m3.5357 10.582c10.57 0 13.03 0 19.993-0.021 0 1.175 0.258 12-0.484 12-0.714 0-14.046-0.07-21.009-0.05 1.472 0 1.4997-0.465 1.4997-11.929z"/>
   <path id="path3211" style="opacity:.4;stroke:url(#radialGradient3004-5-2);stroke-width:.98119;fill:none" d="m22.975 11.376s-16.832 0.07-18.397-0.069c-0.0826 10.346-0.5006 10.802-0.5006 10.802"/>
   <path id="path2608" style="fill:url(#linearGradient3001-8-3);fill-rule:evenodd" d="m4.288 10.172c-0.6849 0-1.2517 0.384-1.2517 0.847v4.816c0.0026 0.086 0.0661 0.185 0.1669 0.245s0.2297 0.085 0.3755 0.075h0.0139l20.026-2.145c0.232-0.024 0.414-0.16 0.417-0.319v-2.672c0-0.463-0.566-0.847-1.251-0.847h-18.497z"/>
  </g>
 </g>
</svg>
